src/images/icons/Vector twitter.svg

<svg width="21" height="17" viewBox="0 0 21 17" fill="none" xmlns="http://www.w3.org/2000/svg">
<path d="M20.383 1.96745C19.6196 2.30514 18.81 2.52692 17.981 2.62545C18.8548 2.10288 19.5087 1.28046 19.821 0.31145C19.001 0.79945 18.102 1.14145 17.165 1.32645C16.5356 0.653029 15.7014 0.206413 14.792 0.0560348C13.8826 -0.0943437 12.9489 0.0599411 12.1363 0.494903C11.3236 0.929865 10.6774 1.62113 10.2981 2.46124C9.91884 3.30135 9.82775 4.24323 10.039 5.14045C8.37611 5.0571 6.74933 4.62497 5.26429 3.87211C3.77924 3.11925 2.46913 2.0625 1.419 0.77045C1.04729 1.4089 0.851955 2.13468 0.853 2.87345C0.853 4.32345 1.591 5.60445 2.713 6.35445C2.04901 6.33355 1.39963 6.15423 0.819 5.83145V5.88345C0.8192 6.84915 1.15337 7.78507 1.76485 8.53251C2.37633 9.27995 3.22748 9.79293 4.174 9.98445C3.55761 10.1515 2.91131 10.1761 2.284 10.0564C2.55087 10.8877 3.07101 11.6146 3.77159 12.1356C4.47218 12.6565 5.31813 12.9452 6.191 12.9614C5.32348 13.6428 4.33018 14.1464 3.26788 14.4436C2.20558 14.7408 1.09513 14.8257 0 14.6934C1.9117 15.9229 4.1371 16.5756 6.41 16.5734C14.103 16.5734 18.31 10.2005 18.31 4.67345C18.31 4.49345 18.305 4.31145 18.297 4.13345C19.1159 3.54162 19.8226 2.80847 20.384 1.96845L20.383 1.96745Z" fill="white"/>
</svg>

<svg xmlns="http://www.w3.org/2000/svg" width="21" height="17" fill="none"><path fill="#fff" d="M20.383 1.967a8.4 8.4 0 0 1-2.402.658 4.2 4.2 0 0 0 1.84-2.314c-.82.488-1.719.83-2.656 1.015a4.182 4.182 0 0 0-7.126 3.814A11.87 11.87 0 0 1 1.419.77a4.17 4.17 0 0 0-.566 2.103c0 1.45.738 2.731 1.86 3.481a4.2 4.2 0 0 1-1.894-.523v.052a4.185 4.185 0 0 0 3.355 4.101 4.2 4.2 0 0 1-1.89.072 4.185 4.185 0 0 0 3.907 2.905A8.4 8.4 0 0 1 0 14.693a11.83 11.83 0 0 0 6.41 1.88c7.693 0 11.9-6.373 11.9-11.9q0-.271-.013-.54a8.5 8.5 0 0 0 2.087-2.165z"/></svg>
